X:1
T:I's the B'y
M:6/8
L:1/4
K:D
 F F/2 F F/2| E C/2 A,3/2| F F/2 F F/2| G3/2 A3/2| F F/2 F F/2| E/2E/2C/2 A, A,/2|\
 A, B,/2 C C/2| D3/2 D3/2|
